hero/outline/question-mark-circle.svg

<svg width="24" height="24" viewBox="0 0 24 24" fill="none" xmlns="http://www.w3.org/2000/svg">
<path d="M9.87891 7.51884C11.0505 6.49372 12.95 6.49372 14.1215 7.51884C15.2931 8.54397 15.2931 10.206 14.1215 11.2312C13.9176 11.4096 13.6917 11.5569 13.4513 11.6733C12.7056 12.0341 12.0002 12.6716 12.0002 13.5V14.25M21 12C21 16.9706 16.9706 21 12 21C7.02944 21 3 16.9706 3 12C3 7.02944 7.02944 3 12 3C16.9706 3 21 7.02944 21 12ZM12 17.25H12.0075V17.2575H12V17.25Z" stroke="#0F172A" stroke-width="1.5" stroke-linecap="round" stroke-linejoin="round"/>
</svg>

<svg viewBox="0 0 24 24" xmlns="http://www.w3.org/2000/svg"><path fill="none" stroke="#000" stroke-linecap="round" stroke-linejoin="round" stroke-width="1.5" d="M9.87 7.519c1.17-1.03 3.07-1.03 4.24 0 1.17 1.02 1.17 2.68 0 3.71 -.21.17-.43.32-.67.44 -.75.36-1.45.99-1.45 1.827v.75m8.99-2.25v0c0 4.97-4.03 9-9 9 -4.98 0-9-4.03-9-9v0c0-4.98 4.02-9 9-9 4.97 0 9 4.02 9 9Zm-9 5.25h0v0h-.01v-.01Z"/></svg>
